X:1
T:Smith's -- Hornpipe
Z:Bob Puckette <bpuckette:msn.com> 2003-3-10
R:hornpipe
B:Cole's 1000 Fiddle Tunes
M:2/4
L:1/16
K:Bb
uF2|.B2(gf) edcB|ABcd eFGA|BAcB dced|fgec BAGF|
.B2(gf) edcB|ABcB AGFE|DBEB FBGB|AgfA B2:|
|:uF2|vkD2FF BFdB|kE2GG cGec|dBgf edcB|.A(f"0"=ef) "4"ecAF|
D2FF BFdB|E2GG cAec|dfBd cgec|AFGA B2:|
